packages/design-system/src/icons/ps-icons/stories.svg

<?xml version="1.0" encoding="UTF-8"?>
<!-- Created with Inkscape (http://www.inkscape.org/) -->
<svg width="800" height="800" version="1.1" viewBox="0 0 800 800" xml:space="preserve" xmlns="http://www.w3.org/2000/svg"><defs><clipPath id="clipPath862"><path d="m0 600h600v-600h-600z"/></clipPath></defs><g transform="matrix(1.3333 0 0 -1.3333 0 800)"><g transform="translate(146.84 511.91)"><path d="m0 0v33.087c0 11.533 9.349 20.882 20.882 20.882h265.33c11.533 0 20.882-9.349 20.882-20.882v-490.4c0-11.532-9.349-20.882-20.882-20.882h-28.754" fill="none" stroke="#4285fa" stroke-linecap="round" stroke-linejoin="round" stroke-miterlimit="10" stroke-width="25.168"/></g><g transform="translate(146.84 210.45)"><path d="m0 0v236.13" fill="#fff" stroke="#4285fa" stroke-linecap="round" stroke-linejoin="round" stroke-miterlimit="10" stroke-width="25.168"/></g><g transform="translate(337.51 33.719)"><path d="m0 0h-169.79c-11.533 0-20.882 9.349-20.882 20.882v122.43" fill="none" stroke="#4285fa" stroke-linecap="round" stroke-linejoin="round" stroke-miterlimit="10" stroke-width="25.168"/></g><g transform="translate(370.76 20.933)"><path d="m0 0c-7.062 0-12.786 5.724-12.786 12.786s5.724 12.786 12.786 12.786 12.786-5.724 12.786-12.786-5.724-12.786-12.786-12.786" fill="#4285fa"/></g><g transform="translate(146.84 466.23)"><path d="m0 0c-7.062 0-12.786 5.724-12.786 12.786s5.724 12.786 12.786 12.786 12.786-5.724 12.786-12.786-5.724-12.786-12.786-12.786" fill="#4285fa"/></g><g transform="translate(275.5 423.47)"><path d="m0 0h-63.743c-8.447 0-15.294 6.847-15.294 15.294v63.743c0 8.447 6.847 15.294 15.294 15.294h63.743c8.447 0 15.294-6.847 15.294-15.294v-63.743c0-8.447-6.847-15.294-15.294-15.294" fill="#3bd897"/></g><g transform="translate(389.36 423.47)"><path d="m0 0h-63.743c-8.447 0-15.294 6.847-15.294 15.294v63.743c0 8.447 6.847 15.294 15.294 15.294h63.743c8.447 0 15.294-6.847 15.294-15.294v-63.743c0-8.447-6.847-15.294-15.294-15.294" fill="#3bd897"/></g><g transform="translate(275.5 310.48)"><path d="m0 0h-63.743c-8.447 0-15.294 6.848-15.294 15.294v63.743c0 8.447 6.847 15.294 15.294 15.294h63.743c8.447 0 15.294-6.847 15.294-15.294v-63.743c0-8.446-6.847-15.294-15.294-15.294" fill="#3bd897"/></g><g transform="translate(389.36 310.48)"><path d="m0 0h-63.743c-8.447 0-15.294 6.848-15.294 15.294v63.743c0 8.447 6.847 15.294 15.294 15.294h63.743c8.447 0 15.294-6.847 15.294-15.294v-63.743c0-8.446-6.847-15.294-15.294-15.294" fill="#3bd897"/></g><g transform="translate(275.5 197.49)"><path d="m0 0h-63.743c-8.447 0-15.294 6.847-15.294 15.294v63.743c0 8.447 6.847 15.294 15.294 15.294h63.743c8.447 0 15.294-6.847 15.294-15.294v-63.743c0-8.447-6.847-15.294-15.294-15.294" fill="#3bd897"/></g><g transform="translate(389.36 197.49)"><path d="m0 0h-63.743c-8.447 0-15.294 6.847-15.294 15.294v63.743c0 8.447 6.847 15.294 15.294 15.294h63.743c8.447 0 15.294-6.847 15.294-15.294v-63.743c0-8.447-6.847-15.294-15.294-15.294" fill="#dc9af8"/></g><g transform="translate(275.5 84.506)"><path d="m0 0h-63.743c-8.447 0-15.294 6.847-15.294 15.294v63.743c0 8.447 6.847 15.294 15.294 15.294h63.743c8.447 0 15.294-6.847 15.294-15.294v-63.743c0-8.447-6.847-15.294-15.294-15.294" fill="#3bd897"/></g><g transform="translate(389.36 84.506)"><path d="m0 0h-63.743c-8.447 0-15.294 6.847-15.294 15.294v63.743c0 8.447 6.847 15.294 15.294 15.294h63.743c8.447 0 15.294-6.847 15.294-15.294v-63.743c0-8.447-6.847-15.294-15.294-15.294" fill="#3bd897"/></g></g></svg>

<?xml version="1.0" encoding="UTF-8" standalone="no"?>
<!-- Created with Inkscape (http://www.inkscape.org/) -->

<svg
   version="1.1"
   id="svg524"
   xml:space="preserve"
   width="443.28931"
   height="743.37665"
   viewBox="0 0 443.28931 743.37665"
   sodipodi:docname="Stories.svg"
   inkscape:version="1.1.2 (0a00cf5339, 2022-02-04)"
   xmlns:inkscape="http://www.inkscape.org/namespaces/inkscape"
   xmlns:sodipodi="http://sodipodi.sourceforge.net/DTD/sodipodi-0.dtd"
   xmlns="http://www.w3.org/2000/svg"
   xmlns:svg="http://www.w3.org/2000/svg"><defs
     id="defs528"><clipPath
       clipPathUnits="userSpaceOnUse"
       id="clipPath538"><path
         d="M 0,600 H 600 V 0 H 0 Z"
         id="path536" /></clipPath></defs><sodipodi:namedview
     id="namedview526"
     pagecolor="#ffffff"
     bordercolor="#666666"
     borderopacity="1.0"
     inkscape:pageshadow="2"
     inkscape:pageopacity="0.0"
     inkscape:pagecheckerboard="0"
     showgrid="false"
     inkscape:zoom="1.09125"
     inkscape:cx="221.30584"
     inkscape:cy="371.59221"
     inkscape:window-width="2560"
     inkscape:window-height="1371"
     inkscape:window-x="0"
     inkscape:window-y="32"
     inkscape:window-maximized="1"
     inkscape:current-layer="g530" /><g
     id="g530"
     inkscape:groupmode="layer"
     inkscape:label="Stories"
     transform="matrix(1.3333333,0,0,-1.3333333,-178.7388,771.28718)"><g
       id="g532"><g
         id="g534"
         clip-path="url(#clipPath538)"><g
           id="g540"
           transform="translate(146.8401,511.9124)"><path
             d="M 0,0 V 33.087 C 0,44.62 9.349,53.969 20.882,53.969 h 265.333 c 11.533,0 20.882,-9.349 20.882,-20.882 v -490.399 c 0,-11.532 -9.349,-20.882 -20.882,-20.882 h -28.754"
             style="fill:none;stroke:#4285fa;stroke-width:25.168;stroke-linecap:round;stroke-linejoin:round;stroke-miterlimit:10;stroke-dasharray:none;stroke-opacity:1"
             id="path542" /></g><g
           id="g544"
           transform="translate(146.8401,210.4458)"><path
             d="M 0,0 V 236.129"
             style="fill:#ffffff;fill-opacity:1;fill-rule:nonzero;stroke:#4285fa;stroke-width:25.168;stroke-linecap:round;stroke-linejoin:round;stroke-miterlimit:10;stroke-dasharray:none;stroke-opacity:1"
             id="path546" /></g><g
           id="g548"
           transform="translate(337.5109,33.7189)"><path
             d="m 0,0 h -169.789 c -11.533,0 -20.882,9.349 -20.882,20.882 v 122.432"
             style="fill:none;stroke:#4285fa;stroke-width:25.168;stroke-linecap:round;stroke-linejoin:round;stroke-miterlimit:10;stroke-dasharray:none;stroke-opacity:1"
             id="path550" /></g><g
           id="g552"
           transform="translate(370.761,20.9329)"><path
             d="m 0,0 c -7.062,0 -12.786,5.724 -12.786,12.786 0,7.062 5.724,12.786 12.786,12.786 7.062,0 12.786,-5.724 12.786,-12.786 C 12.786,5.724 7.062,0 0,0"
             style="fill:#4285fa;fill-opacity:1;fill-rule:nonzero;stroke:none"
             id="path554" /></g><g
           id="g556"
           transform="translate(146.8401,466.2332)"><path
             d="m 0,0 c -7.062,0 -12.786,5.724 -12.786,12.786 0,7.062 5.724,12.786 12.786,12.786 7.062,0 12.786,-5.724 12.786,-12.786 C 12.786,5.724 7.062,0 0,0"
             style="fill:#4285fa;fill-opacity:1;fill-rule:nonzero;stroke:none"
             id="path558" /></g><g
           id="g560"
           transform="translate(275.5013,423.4695)"><path
             d="m 0,0 h -63.743 c -8.447,0 -15.294,6.847 -15.294,15.294 v 63.743 c 0,8.447 6.847,15.294 15.294,15.294 H 0 c 8.447,0 15.294,-6.847 15.294,-15.294 V 15.294 C 15.294,6.847 8.447,0 0,0"
             style="fill:#3bd897;fill-opacity:1;fill-rule:nonzero;stroke:none"
             id="path562" /></g><g
           id="g564"
           transform="translate(389.3634,423.4695)"><path
             d="m 0,0 h -63.743 c -8.447,0 -15.294,6.847 -15.294,15.294 v 63.743 c 0,8.447 6.847,15.294 15.294,15.294 H 0 c 8.447,0 15.294,-6.847 15.294,-15.294 V 15.294 C 15.294,6.847 8.447,0 0,0"
             style="fill:#3bd897;fill-opacity:1;fill-rule:nonzero;stroke:none"
             id="path566" /></g><g
           id="g568"
           transform="translate(275.5013,310.4817)"><path
             d="m 0,0 h -63.743 c -8.447,0 -15.294,6.848 -15.294,15.294 v 63.743 c 0,8.447 6.847,15.294 15.294,15.294 H 0 c 8.447,0 15.294,-6.847 15.294,-15.294 V 15.294 C 15.294,6.848 8.447,0 0,0"
             style="fill:#3bd897;fill-opacity:1;fill-rule:nonzero;stroke:none"
             id="path570" /></g><g
           id="g572"
           transform="translate(389.3634,310.4817)"><path
             d="m 0,0 h -63.743 c -8.447,0 -15.294,6.848 -15.294,15.294 v 63.743 c 0,8.447 6.847,15.294 15.294,15.294 H 0 c 8.447,0 15.294,-6.847 15.294,-15.294 V 15.294 C 15.294,6.848 8.447,0 0,0"
             style="fill:#3bd897;fill-opacity:1;fill-rule:nonzero;stroke:none"
             id="path574" /></g><g
           id="g576"
           transform="translate(275.5013,197.494)"><path
             d="m 0,0 h -63.743 c -8.447,0 -15.294,6.847 -15.294,15.294 v 63.743 c 0,8.447 6.847,15.294 15.294,15.294 H 0 c 8.447,0 15.294,-6.847 15.294,-15.294 V 15.294 C 15.294,6.847 8.447,0 0,0"
             style="fill:#3bd897;fill-opacity:1;fill-rule:nonzero;stroke:none"
             id="path578" /></g><g
           id="g580"
           transform="translate(389.3634,197.494)"><path
             d="m 0,0 h -63.743 c -8.447,0 -15.294,6.847 -15.294,15.294 v 63.743 c 0,8.447 6.847,15.294 15.294,15.294 H 0 c 8.447,0 15.294,-6.847 15.294,-15.294 V 15.294 C 15.294,6.847 8.447,0 0,0"
             style="fill:#dc9af8;fill-opacity:1;fill-rule:nonzero;stroke:none"
             id="path582" /></g><g
           id="g584"
           transform="translate(275.5013,84.5063)"><path
             d="m 0,0 h -63.743 c -8.447,0 -15.294,6.847 -15.294,15.294 v 63.743 c 0,8.447 6.847,15.294 15.294,15.294 H 0 c 8.447,0 15.294,-6.847 15.294,-15.294 V 15.294 C 15.294,6.847 8.447,0 0,0"
             style="fill:#3bd897;fill-opacity:1;fill-rule:nonzero;stroke:none"
             id="path586" /></g><g
           id="g588"
           transform="translate(389.3634,84.5063)"><path
             d="m 0,0 h -63.743 c -8.447,0 -15.294,6.847 -15.294,15.294 v 63.743 c 0,8.447 6.847,15.294 15.294,15.294 H 0 c 8.447,0 15.294,-6.847 15.294,-15.294 V 15.294 C 15.294,6.847 8.447,0 0,0"
             style="fill:#3bd897;fill-opacity:1;fill-rule:nonzero;stroke:none"
             id="path590" /></g></g></g></g></svg>
